Newaita-dark/apps/48/preferences-desktop-accessibility.svg

<svg height="48" viewBox="0 0 48 48" width="48" xmlns="http://www.w3.org/2000/svg" xmlns:xlink="http://www.w3.org/1999/xlink"><linearGradient id="a"><stop offset="0" stop-opacity=".313726"/><stop offset=".222222" stop-opacity=".27451"/><stop offset="1" stop-opacity="0"/></linearGradient><radialGradient id="b" cx="450.908936" cy="189.579361" gradientTransform="matrix(.00000026 -.117199 -.210958 -.00000015 66.784728 95.392994)" gradientUnits="userSpaceOnUse" r="21.166656" xlink:href="#a"/><radialGradient id="c" cx="450.908936" cy="189.579361" gradientTransform="matrix(-.00000026 .117199 .210958 .00000015 -19.155178 -11.291223)" gradientUnits="userSpaceOnUse" r="21.166656" xlink:href="#a"/><radialGradient id="d" cx="450.908936" cy="189.579361" gradientTransform="matrix(-.00000026 -.117199 .210958 -.00000015 -19.155178 95.392994)" gradientUnits="userSpaceOnUse" r="21.166656" xlink:href="#a"/><radialGradient id="e" cx="450.908936" cy="189.579361" gradientTransform="matrix(.00000026 .117199 -.210958 .00000015 66.784725 -11.291224)" gradientUnits="userSpaceOnUse" r="21.166656" xlink:href="#a"/><linearGradient id="f" gradientTransform="matrix(.0200401 0 0 .093759 18.698079 20.158175)" gradientUnits="userSpaceOnUse" x1="255.323059" x2="255.323044" y1="233.5" y2="254.666656"><stop offset="0" stop-opacity=".27451"/><stop offset="1" stop-opacity="0"/></linearGradient><linearGradient id="g" gradientUnits="userSpaceOnUse" x1="254" x2="254" y1="-168.666672" y2="233.5"><stop offset="0" stop-color="#ffb74d"/><stop offset="1" stop-color="#ffa726"/></linearGradient><linearGradient id="h" gradientUnits="userSpaceOnUse" x1="23.81481902647" x2="23.81481902647" y1="32.12812883263" y2="13.27472980616"><stop offset="0" stop-color="#424242"/><stop offset="1" stop-color="#616161"/></linearGradient><path d="m27.289062 42.050781h3.96875v-1.984375h-3.96875zm0 0" fill="url(#b)"/><path d="m20.339844 42.050781h-3.96875v1.984375h3.96875zm0 0" fill="url(#c)"/><path d="m20.339844 42.050781h-3.96875v-1.984375h3.96875zm0 0" fill="url(#d)"/><path d="m27.289062 42.050781h3.96875v1.984375h-3.96875zm0 0" fill="url(#e)"/><path d="m20.339844 41.554688h6.949218v2.480468h-6.949218zm0 0" fill="url(#f)"/><path d="m254.017409-168.671091c111.031064 0 201.064133 90.033069 201.064133 201.105795 0 111.031064-90.033069 201.064133-201.064133 201.064133-111.072726 0-201.105795-90.033069-201.105795-201.064133 0-111.072726 90.033069-201.105795 201.105795-201.105795zm0 0" fill="url(#g)" stroke="#333" stroke-linecap="round" stroke-width="3" transform="matrix(.093759 0 0 .093759 0 20.158175)"/><path d="m23.816406 41.925781c-10.445312 0-18.855468-8.40625-18.855468-18.851562 0-.0625 0-.125 0-.183594.101562 10.355469 8.472656 18.667969 18.855468 18.667969 10.382813 0 18.753906-8.3125 18.851563-18.667969v.183594c0 10.445312-8.410157 18.851562-18.851563 18.851562zm0 0" fill-opacity=".196078"/><path d="m23.816406 4.46875c-10.445312 0-18.855468 8.40625-18.855468 18.851562v.1875c.101562-10.359374 8.472656-18.671874 18.855468-18.671874 10.382813 0 18.753906 8.3125 18.851563 18.671874 0-.0625 0-.125 0-.1875 0-10.445312-8.410157-18.851562-18.851563-18.851562zm0 0" fill="#fff" fill-opacity=".392157"/><path d="m23.816406 4.203125c-10.523437 0-18.996094 8.472656-18.996094 18.996094 0 10.519531 8.472657 18.992187 18.996094 18.992187 10.519532 0 18.992188-8.472656 18.992188-18.992187 0-10.523438-8.472656-18.996094-18.992188-18.996094zm0 .28125c10.367188 0 18.710938 8.34375 18.710938 18.714844 0 10.367187-8.34375 18.710937-18.710938 18.710937-10.371094 0-18.714844-8.34375-18.714844-18.710937 0-10.371094 8.34375-18.714844 18.714844-18.714844zm0 0" fill="#212121"/><path d="m23.363281 13.273438c-1.03125 0-1.863281.832031-1.863281 1.867187 0 1.03125.832031 1.863281 1.863281 1.863281 1.035157 0 1.863281-.832031 1.863281-1.863281 0-1.035156-.828124-1.867187-1.863281-1.867187zm-.929687 4.660156c-.519532 0-.933594.417968-.933594.933594v6.523437c0 .519531.414062.933594.933594.933594h7.457031v3.726562c0 .519531.414063.933594.929687.933594.515626 0 .933594-.414063.933594-.933594v-4.660156s-.417968-.929687-.933594-.929687h-5.59375v-2.796876h3.730469c.515625 0 .933594-.417968.933594-.933593s-.417969-.929688-.933594-.929688h-3.730469c0-1.867187-.414062-1.867187-.929687-1.867187zm-1.867188 3.554687c-1.671875.964844-2.792968 2.757813-2.792968 4.835938 0 3.097656 2.492187 5.59375 5.589843 5.59375 2.78125 0 5.066407-2.007813 5.507813-4.660157h-.933594c-.433594 2.125-2.3125 3.726563-4.574219 3.726563-2.582031 0-4.660156-2.078125-4.660156-4.660156 0-1.53125.730469-2.878907 1.863281-3.730469zm0 0" fill="url(#h)"/><path d="m21.527344 15.363281c-.019532.105469-.027344.210938-.027344.316407 0 1.035156.832031 1.863281 1.863281 1.863281 1.035157 0 1.863281-.828125 1.863281-1.863281 0-.105469-.007812-.210938-.023437-.316407-.152344.882813-.914063 1.550781-1.839844 1.550781s-1.6875-.667968-1.835937-1.550781zm8.308594 5.59375c-.128907.359375-.472657.617188-.878907.617188h-3.730469v.632812h3.730469c.515625 0 .933594-.417969.933594-.933593 0-.109376-.019531-.21875-.054687-.316407zm-9.269532 1.550781c-1.132812.847657-1.863281 2.195313-1.863281 3.726563 0 .105469.003906.210937.011719.316406.09375-1.402343.796875-2.625 1.851562-3.414062zm.933594 2.792969v.632813c0 .515625.414062.933594.933594.933594h7.457031v-.632813h-7.457031c-.519532 0-.933594-.414063-.933594-.933594zm-3.71875 1.25c-.007812.101563-.007812.207031-.007812.316407 0 3.097656 2.492187 5.589843 5.589843 5.589843 2.78125 0 5.066407-2.003906 5.507813-4.660156h-.144532c-.667968 2.335937-2.804687 4.03125-5.363281 4.03125-2.992187 0-5.421875-2.328125-5.582031-5.277344zm12.109375 3.414063v.628906c0 .515625.414063.933594.929687.933594.515626 0 .933594-.417969.933594-.933594v-.628906c0 .515625-.417968.929687-.933594.929687-.515624 0-.929687-.414062-.929687-.929687zm0 0" fill-opacity=".235294"/><path d="m23.363281 13.273438c-1.03125 0-1.863281.832031-1.863281 1.867187 0 .089844.007812.183594.019531.273437.132813-.902343.90625-1.589843 1.84375-1.589843.941407 0 1.710938.6875 1.84375 1.589843.015625-.089843.019531-.183593.019531-.273437 0-1.035156-.828124-1.867187-1.863281-1.867187zm-.929687 4.660156c-.519532 0-.933594.417968-.933594.933594v.550781c0-.519531.414062-.933594.933594-.933594h1.863281c.515625 0 .929687 0 .929687 1.863281h3.730469c.421875 0 .773438.277344.890625.65625.027344-.085937.042969-.175781.042969-.273437 0-.515625-.417969-.929688-.933594-.929688h-3.730469c0-1.867187-.414062-1.867187-.929687-1.867187zm-1.867188 3.554687c-1.671875.964844-2.792968 2.757813-2.792968 4.835938 0 .089843 0 .183593.003906.273437.097656-1.960937 1.195312-3.636718 2.789062-4.558594zm4.660156 2.972657v.546874h5.59375c.515626 0 .933594.933594.933594.933594v-.550781s-.417968-.929687-.933594-.929687zm-6.507812 2.238281c-.007812.121093-.015625.246093-.015625.367187 0 .09375.003906.1875.007813.277344.003906-.03125.003906-.0625.007812-.097656.1875 2.40625 2.191406 4.289062 4.644531 4.289062 2.261719 0 4.140625-1.601562 4.574219-3.730468h.8125c.046875-.179688.089844-.363282.121094-.546876h-.933594c-.433594 2.125-2.3125 3.726563-4.574219 3.726563-2.453125 0-4.457031-1.878906-4.644531-4.285156zm0 0" fill="#fff" fill-opacity=".392157"/><path d="m941.799946 535.067074c-41.570839 0-75.110948 33.540109-75.110948 75.268413 0 41.570839 33.540109 75.110948 75.110948 75.110948 41.728304 0 75.110948-33.540109 75.110948-75.110948 0-41.728304-33.382644-75.268413-75.110948-75.268413zm-37.476741 187.856102c-20.942885 0-37.634207 16.848787-37.634207 37.634207v262.967049c0 20.942885 16.691322 37.634207 37.634207 37.634207h300.601256v150.221895c0 20.942885 16.691322 37.634207 37.476741 37.634207 20.78542 0 37.634207-16.691322 37.634207-37.634207v-187.856102s-16.848787-37.476741-37.634207-37.476741h-225.490308v-112.745154h150.37936c20.78542 0 37.634207-16.848787 37.634207-37.634207 0-20.785419-16.848787-37.476741-37.634207-37.476741h-150.37936c0-75.268413-16.691322-75.268413-37.476741-75.268413zm-75.268413 143.293422c-67.395148 38.893929-112.587689 111.170502-112.587689 194.942041 0 124.869982 100.462861 225.490308 225.332843 225.490308 112.115293 0 204.232493-80.937164 222.026072-187.856102h-37.634207c-17.478648 85.661123-93.219457 150.221896-184.391865 150.221896-104.084563 0-187.856102-83.77154-187.856102-187.856102 0-61.726398 29.446011-116.051926 75.110948-150.379361zm0 0" fill="none" stroke="#212121" stroke-width="11.338584" transform="scale(.0248071)"/></svg>

<?xml version="1.0" encoding="UTF-8"?>
<svg xmlns="http://www.w3.org/2000/svg" xmlns:xlink="http://www.w3.org/1999/xlink" width="48px" height="48px" viewBox="0 0 48 48" version="1.1">
<defs>
<radialGradient id="radial0" gradientUnits="userSpaceOnUse" cx="450.908936" cy="189.579361" fx="450.908936" fy="189.579361" r="21.166656" gradientTransform="matrix(0.000000261256,-0.117199,-0.210958,-0.000000152308,66.784728,95.392994)">
<stop offset="0" style="stop-color:rgb(0%,0%,0%);stop-opacity:0.313726;"/>
<stop offset="0.222222" style="stop-color:rgb(0%,0%,0%);stop-opacity:0.27451;"/>
<stop offset="1" style="stop-color:rgb(0%,0%,0%);stop-opacity:0;"/>
</radialGradient>
<radialGradient id="radial1" gradientUnits="userSpaceOnUse" cx="450.908936" cy="189.579361" fx="450.908936" fy="189.579361" r="21.166656" gradientTransform="matrix(-0.000000261256,0.117199,0.210958,0.000000152308,-19.155178,-11.291223)">
<stop offset="0" style="stop-color:rgb(0%,0%,0%);stop-opacity:0.313726;"/>
<stop offset="0.222222" style="stop-color:rgb(0%,0%,0%);stop-opacity:0.27451;"/>
<stop offset="1" style="stop-color:rgb(0%,0%,0%);stop-opacity:0;"/>
</radialGradient>
<radialGradient id="radial2" gradientUnits="userSpaceOnUse" cx="450.908936" cy="189.579361" fx="450.908936" fy="189.579361" r="21.166656" gradientTransform="matrix(-0.000000261256,-0.117199,0.210958,-0.000000152308,-19.155178,95.392994)">
<stop offset="0" style="stop-color:rgb(0%,0%,0%);stop-opacity:0.313726;"/>
<stop offset="0.222222" style="stop-color:rgb(0%,0%,0%);stop-opacity:0.27451;"/>
<stop offset="1" style="stop-color:rgb(0%,0%,0%);stop-opacity:0;"/>
</radialGradient>
<radialGradient id="radial3" gradientUnits="userSpaceOnUse" cx="450.908936" cy="189.579361" fx="450.908936" fy="189.579361" r="21.166656" gradientTransform="matrix(0.000000261256,0.117199,-0.210958,0.000000152308,66.784725,-11.291224)">
<stop offset="0" style="stop-color:rgb(0%,0%,0%);stop-opacity:0.313726;"/>
<stop offset="0.222222" style="stop-color:rgb(0%,0%,0%);stop-opacity:0.27451;"/>
<stop offset="1" style="stop-color:rgb(0%,0%,0%);stop-opacity:0;"/>
</radialGradient>
<linearGradient id="linear0" gradientUnits="userSpaceOnUse" x1="255.323059" y1="233.5" x2="255.323044" y2="254.666656" gradientTransform="matrix(0.0200401,0,0,0.093759,18.698079,20.158175)">
<stop offset="0" style="stop-color:rgb(0%,0%,0%);stop-opacity:0.27451;"/>
<stop offset="1" style="stop-color:rgb(0%,0%,0%);stop-opacity:0;"/>
</linearGradient>
<linearGradient id="linear1" gradientUnits="userSpaceOnUse" x1="254" y1="-168.666672" x2="254" y2="233.5" gradientTransform="matrix(1,0,0,1,0,0)">
<stop offset="0" style="stop-color:rgb(100%,71.764708%,30.19608%);stop-opacity:1;"/>
<stop offset="1" style="stop-color:rgb(100%,65.490198%,14.901961%);stop-opacity:1;"/>
</linearGradient>
<linearGradient id="linear2" gradientUnits="userSpaceOnUse" x1="960.000122" y1="1295.118286" x2="960.000122" y2="535.118164" gradientTransform="matrix(0.0248071,0,0,0.0248071,0.000000190062,0.000000292457)">
<stop offset="0" style="stop-color:rgb(25.882354%,25.882354%,25.882354%);stop-opacity:1;"/>
<stop offset="1" style="stop-color:rgb(38.039216%,38.039216%,38.039216%);stop-opacity:1;"/>
</linearGradient>
</defs>
<g id="surface1">
<path style=" stroke:none;fill-rule:nonzero;fill:url(#radial0);" d="M 27.289062 42.050781 L 31.257812 42.050781 L 31.257812 40.066406 L 27.289062 40.066406 Z M 27.289062 42.050781 "/>
<path style=" stroke:none;fill-rule:nonzero;fill:url(#radial1);" d="M 20.339844 42.050781 L 16.371094 42.050781 L 16.371094 44.035156 L 20.339844 44.035156 Z M 20.339844 42.050781 "/>
<path style=" stroke:none;fill-rule:nonzero;fill:url(#radial2);" d="M 20.339844 42.050781 L 16.371094 42.050781 L 16.371094 40.066406 L 20.339844 40.066406 Z M 20.339844 42.050781 "/>
<path style=" stroke:none;fill-rule:nonzero;fill:url(#radial3);" d="M 27.289062 42.050781 L 31.257812 42.050781 L 31.257812 44.035156 L 27.289062 44.035156 Z M 27.289062 42.050781 "/>
<path style=" stroke:none;fill-rule:nonzero;fill:url(#linear0);" d="M 20.339844 41.554688 L 27.289062 41.554688 L 27.289062 44.035156 L 20.339844 44.035156 Z M 20.339844 41.554688 "/>
<path style="fill-rule:nonzero;fill:url(#linear1);stroke-width:3;stroke-linecap:round;stroke-linejoin:miter;stroke:rgb(20%,20%,20%);stroke-opacity:1;stroke-miterlimit:4;" d="M 254.017409 -168.671091 C 365.048473 -168.671091 455.081542 -78.638022 455.081542 32.434704 C 455.081542 143.465768 365.048473 233.498837 254.017409 233.498837 C 142.944683 233.498837 52.911614 143.465768 52.911614 32.434704 C 52.911614 -78.638022 142.944683 -168.671091 254.017409 -168.671091 Z M 254.017409 -168.671091 " transform="matrix(0.093759,0,0,0.093759,0,20.158175)"/>
<path style=" stroke:none;fill-rule:nonzero;fill:rgb(0%,0%,0%);fill-opacity:0.196078;" d="M 23.816406 41.925781 C 13.371094 41.925781 4.960938 33.519531 4.960938 23.074219 C 4.960938 23.011719 4.960938 22.949219 4.960938 22.890625 C 5.0625 33.246094 13.433594 41.558594 23.816406 41.558594 C 34.199219 41.558594 42.570312 33.246094 42.667969 22.890625 C 42.667969 22.949219 42.667969 23.011719 42.667969 23.074219 C 42.667969 33.519531 34.257812 41.925781 23.816406 41.925781 Z M 23.816406 41.925781 "/>
<path style=" stroke:none;fill-rule:nonzero;fill:rgb(100%,100%,100%);fill-opacity:0.392157;" d="M 23.816406 4.46875 C 13.371094 4.46875 4.960938 12.875 4.960938 23.320312 C 4.960938 23.382812 4.960938 23.445312 4.960938 23.507812 C 5.0625 13.148438 13.433594 4.835938 23.816406 4.835938 C 34.199219 4.835938 42.570312 13.148438 42.667969 23.507812 C 42.667969 23.445312 42.667969 23.382812 42.667969 23.320312 C 42.667969 12.875 34.257812 4.46875 23.816406 4.46875 Z M 23.816406 4.46875 "/>
<path style=" stroke:none;fill-rule:nonzero;fill:rgb(12.941177%,12.941177%,12.941177%);fill-opacity:1;" d="M 23.816406 4.203125 C 13.292969 4.203125 4.820312 12.675781 4.820312 23.199219 C 4.820312 33.71875 13.292969 42.191406 23.816406 42.191406 C 34.335938 42.191406 42.808594 33.71875 42.808594 23.199219 C 42.808594 12.675781 34.335938 4.203125 23.816406 4.203125 Z M 23.816406 4.484375 C 34.183594 4.484375 42.527344 12.828125 42.527344 23.199219 C 42.527344 33.566406 34.183594 41.910156 23.816406 41.910156 C 13.445312 41.910156 5.101562 33.566406 5.101562 23.199219 C 5.101562 12.828125 13.445312 4.484375 23.816406 4.484375 Z M 23.816406 4.484375 "/>
<path style=" stroke:none;fill-rule:nonzero;fill:url(#linear2);" d="M 23.363281 13.273438 C 22.332031 13.273438 21.5 14.105469 21.5 15.140625 C 21.5 16.171875 22.332031 17.003906 23.363281 17.003906 C 24.398438 17.003906 25.226562 16.171875 25.226562 15.140625 C 25.226562 14.105469 24.398438 13.273438 23.363281 13.273438 Z M 22.433594 17.933594 C 21.914062 17.933594 21.5 18.351562 21.5 18.867188 L 21.5 25.390625 C 21.5 25.910156 21.914062 26.324219 22.433594 26.324219 L 29.890625 26.324219 L 29.890625 30.050781 C 29.890625 30.570312 30.304688 30.984375 30.820312 30.984375 C 31.335938 30.984375 31.753906 30.570312 31.753906 30.050781 L 31.753906 25.390625 C 31.753906 25.390625 31.335938 24.460938 30.820312 24.460938 L 25.226562 24.460938 L 25.226562 21.664062 L 28.957031 21.664062 C 29.472656 21.664062 29.890625 21.246094 29.890625 20.730469 C 29.890625 20.214844 29.472656 19.800781 28.957031 19.800781 L 25.226562 19.800781 C 25.226562 17.933594 24.8125 17.933594 24.296875 17.933594 Z M 20.566406 21.488281 C 18.894531 22.453125 17.773438 24.246094 17.773438 26.324219 C 17.773438 29.421875 20.265625 31.917969 23.363281 31.917969 C 26.144531 31.917969 28.429688 29.910156 28.871094 27.257812 L 27.9375 27.257812 C 27.503906 29.382812 25.625 30.984375 23.363281 30.984375 C 20.78125 30.984375 18.703125 28.90625 18.703125 26.324219 C 18.703125 24.792969 19.433594 23.445312 20.566406 22.59375 Z M 20.566406 21.488281 "/>
<path style=" stroke:none;fill-rule:nonzero;fill:rgb(0%,0%,0%);fill-opacity:0.235294;" d="M 21.527344 15.363281 C 21.507812 15.46875 21.5 15.574219 21.5 15.679688 C 21.5 16.714844 22.332031 17.542969 23.363281 17.542969 C 24.398438 17.542969 25.226562 16.714844 25.226562 15.679688 C 25.226562 15.574219 25.21875 15.46875 25.203125 15.363281 C 25.050781 16.246094 24.289062 16.914062 23.363281 16.914062 C 22.4375 16.914062 21.675781 16.246094 21.527344 15.363281 Z M 29.835938 20.957031 C 29.707031 21.316406 29.363281 21.574219 28.957031 21.574219 L 25.226562 21.574219 L 25.226562 22.207031 L 28.957031 22.207031 C 29.472656 22.207031 29.890625 21.789062 29.890625 21.273438 C 29.890625 21.164062 29.871094 21.054688 29.835938 20.957031 Z M 20.566406 22.507812 C 19.433594 23.355469 18.703125 24.703125 18.703125 26.234375 C 18.703125 26.339844 18.707031 26.445312 18.714844 26.550781 C 18.808594 25.148438 19.511719 23.925781 20.566406 23.136719 Z M 21.5 25.300781 L 21.5 25.933594 C 21.5 26.449219 21.914062 26.867188 22.433594 26.867188 L 29.890625 26.867188 L 29.890625 26.234375 L 22.433594 26.234375 C 21.914062 26.234375 21.5 25.820312 21.5 25.300781 Z M 17.78125 26.550781 C 17.773438 26.652344 17.773438 26.757812 17.773438 26.867188 C 17.773438 29.964844 20.265625 32.457031 23.363281 32.457031 C 26.144531 32.457031 28.429688 30.453125 28.871094 27.796875 L 28.726562 27.796875 C 28.058594 30.132812 25.921875 31.828125 23.363281 31.828125 C 20.371094 31.828125 17.941406 29.5 17.78125 26.550781 Z M 29.890625 29.964844 L 29.890625 30.59375 C 29.890625 31.109375 30.304688 31.527344 30.820312 31.527344 C 31.335938 31.527344 31.753906 31.109375 31.753906 30.59375 L 31.753906 29.964844 C 31.753906 30.480469 31.335938 30.894531 30.820312 30.894531 C 30.304688 30.894531 29.890625 30.480469 29.890625 29.964844 Z M 29.890625 29.964844 "/>
<path style=" stroke:none;fill-rule:nonzero;fill:rgb(100%,100%,100%);fill-opacity:0.392157;" d="M 23.363281 13.273438 C 22.332031 13.273438 21.5 14.105469 21.5 15.140625 C 21.5 15.230469 21.507812 15.324219 21.519531 15.414062 C 21.652344 14.511719 22.425781 13.824219 23.363281 13.824219 C 24.304688 13.824219 25.074219 14.511719 25.207031 15.414062 C 25.222656 15.324219 25.226562 15.230469 25.226562 15.140625 C 25.226562 14.105469 24.398438 13.273438 23.363281 13.273438 Z M 22.433594 17.933594 C 21.914062 17.933594 21.5 18.351562 21.5 18.867188 L 21.5 19.417969 C 21.5 18.898438 21.914062 18.484375 22.433594 18.484375 L 24.296875 18.484375 C 24.8125 18.484375 25.226562 18.484375 25.226562 20.347656 L 28.957031 20.347656 C 29.378906 20.347656 29.730469 20.625 29.847656 21.003906 C 29.875 20.917969 29.890625 20.828125 29.890625 20.730469 C 29.890625 20.214844 29.472656 19.800781 28.957031 19.800781 L 25.226562 19.800781 C 25.226562 17.933594 24.8125 17.933594 24.296875 17.933594 Z M 20.566406 21.488281 C 18.894531 22.453125 17.773438 24.246094 17.773438 26.324219 C 17.773438 26.414062 17.773438 26.507812 17.777344 26.597656 C 17.875 24.636719 18.972656 22.960938 20.566406 22.039062 Z M 25.226562 24.460938 L 25.226562 25.007812 L 30.820312 25.007812 C 31.335938 25.007812 31.753906 25.941406 31.753906 25.941406 L 31.753906 25.390625 C 31.753906 25.390625 31.335938 24.460938 30.820312 24.460938 Z M 18.71875 26.699219 C 18.710938 26.820312 18.703125 26.945312 18.703125 27.066406 C 18.703125 27.160156 18.707031 27.253906 18.710938 27.34375 C 18.714844 27.3125 18.714844 27.28125 18.71875 27.246094 C 18.90625 29.652344 20.910156 31.535156 23.363281 31.535156 C 25.625 31.535156 27.503906 29.933594 27.9375 27.804688 L 28.75 27.804688 C 28.796875 27.625 28.839844 27.441406 28.871094 27.257812 L 27.9375 27.257812 C 27.503906 29.382812 25.625 30.984375 23.363281 30.984375 C 20.910156 30.984375 18.90625 29.105469 18.71875 26.699219 Z M 18.71875 26.699219 "/>
<path style="fill:none;stroke-width:11.338584;stroke-linecap:butt;stroke-linejoin:miter;stroke:rgb(12.941177%,12.941177%,12.941177%);stroke-opacity:1;stroke-miterlimit:4;" d="M 941.799946 535.067074 C 900.229107 535.067074 866.688998 568.607183 866.688998 610.335487 C 866.688998 651.906326 900.229107 685.446435 941.799946 685.446435 C 983.52825 685.446435 1016.910894 651.906326 1016.910894 610.335487 C 1016.910894 568.607183 983.52825 535.067074 941.799946 535.067074 Z M 904.323205 722.923176 C 883.38032 722.923176 866.688998 739.771963 866.688998 760.557383 L 866.688998 1023.524432 C 866.688998 1044.467317 883.38032 1061.158639 904.323205 1061.158639 L 1204.924461 1061.158639 L 1204.924461 1211.380534 C 1204.924461 1232.323419 1221.615783 1249.014741 1242.401202 1249.014741 C 1263.186622 1249.014741 1280.035409 1232.323419 1280.035409 1211.380534 L 1280.035409 1023.524432 C 1280.035409 1023.524432 1263.186622 986.047691 1242.401202 986.047691 L 1016.910894 986.047691 L 1016.910894 873.302537 L 1167.290254 873.302537 C 1188.075674 873.302537 1204.924461 856.45375 1204.924461 835.66833 C 1204.924461 814.882911 1188.075674 798.191589 1167.290254 798.191589 L 1016.910894 798.191589 C 1016.910894 722.923176 1000.219572 722.923176 979.434153 722.923176 Z M 829.054792 866.216598 C 761.659644 905.110527 716.467103 977.3871 716.467103 1061.158639 C 716.467103 1186.028621 816.929964 1286.648947 941.799946 1286.648947 C 1053.915239 1286.648947 1146.032439 1205.711783 1163.826018 1098.792845 L 1126.191811 1098.792845 C 1108.713163 1184.453968 1032.972354 1249.014741 941.799946 1249.014741 C 837.715383 1249.014741 753.943844 1165.243201 753.943844 1061.158639 C 753.943844 999.432241 783.389855 945.106713 829.054792 910.779278 Z M 829.054792 866.216598 " transform="matrix(0.0248071,0,0,0.0248071,0.000000190062,0.000000292457)"/>
</g>
</svg>
